X: 34526
T: Ríl Dharach De Brún
R: reel
M: 4/4
K: Bminor
c|d2fd edBd|ADFA BAFE|DF~F2 DEFA|dBAF ~B3 c|
d2fd edBd|ADFA ~B3 c|dfef afef|dBAF B3:|
g|fB{c}BA B2fd|~e3 f defa|bafe dFAd|BcdB ~e3 g|
fB{c}BA Bf{a}fd|~e3 f defa|bafe dege|fB{c}BA B3:|

